svg/furkot/freepik/mountains.svg

<svg viewBox="0 0 512 512" xmlns="http://www.w3.org/2000/svg"><path d="m371.712 447.033-155.261-351.949c-5.223-11.844-16.942-19.479-29.878-19.479-12.937 0-24.656 7.635-29.878 19.479l-155.273 351.949c-2.298 5.211-1.797 11.184 1.32 15.963 3.095 4.756 8.408 7.612 14.097 7.612h169.722 169.723c5.689 0 10.991-2.845 14.108-7.612 3.14-4.779 3.63-10.752 1.32-15.963zm-119.888-180.019c-2.981 2.378-7.475 2.799-10.297.216-8.009-7.396-26.612-29.048-32.517-29.048-8.602 0-13.585 13.244-22.449 13.244-5.575 0-17.726-18.637-17.726-18.637-2.936-3.083-7.703-3.504-11.128-.978l-15.087 11.093c-3.083 2.264-7.315 2.173-10.296-.227-2.981-2.39-3.994-6.497-2.447-10.001l48.242-109.671c1.593-3.618 4.608-7.191 8.442-7.191 3.823 0 6.861 3.573 8.443 7.191l59.267 134.019c1.536 3.482.546 7.578-2.447 9.99zm269.29 98.986-131.357-297.779c-4.426-10.024-14.336-16.486-25.293-16.486-10.968 0-20.866 6.462-25.292 16.486l-51.485 116.713 85.47 201.023h134.929c4.824 0 9.296-2.412 11.935-6.44 2.629-4.039 3.05-9.102 1.093-13.517zm-101.422-152.303c-2.537 2.026-6.337 2.378-8.715.182-6.793-6.257-22.517-24.576-27.512-24.576-7.293 0-11.503 11.196-19.001 11.196-4.71 0-14.996-15.769-14.996-15.769-2.469-2.606-6.496-2.959-9.398-.831l-12.777 9.375c-2.605 1.912-6.178 1.855-8.715-.182-2.537-2.025-3.379-5.495-2.082-8.465l40.823-92.797c1.343-3.061 3.903-6.087 7.145-6.087 3.232 0 5.803 3.026 7.134 6.087l50.153 113.391c1.309 2.958.444 6.44-2.059 8.476z"/></svg>

<svg xmlns="http://www.w3.org/2000/svg" viewBox="0 0 512 512"><path d="M371.712 447.033L216.451 95.084C211.228 83.24 199.509 75.605 186.573 75.605 173.636 75.605 161.917 83.24 156.695 95.084L1.422 447.033C-0.876 452.244-0.375 458.217 2.742 462.996 5.837 467.752 11.15 470.608 16.839 470.608H186.561 356.284C361.973 470.608 367.275 467.763 370.392 462.996 373.532 458.217 374.022 452.244 371.712 447.033ZM251.824 267.014C248.843 269.392 244.349 269.813 241.527 267.23 233.518 259.834 214.915 238.182 209.01 238.182 200.408 238.182 195.425 251.426 186.561 251.426 180.986 251.426 168.835 232.789 168.835 232.789 165.899 229.706 161.132 229.285 157.707 231.811L142.62 242.904C139.537 245.168 135.305 245.077 132.324 242.677 129.343 240.287 128.33 236.18 129.877 232.676L178.119 123.005C179.712 119.387 182.727 115.814 186.561 115.814 190.384 115.814 193.422 119.387 195.004 123.005L254.271 257.024C255.807 260.506 254.817 264.602 251.824 267.014ZM521.114 366L389.757 68.221C385.331 58.197 375.421 51.735 364.464 51.735 353.496 51.735 343.598 58.197 339.172 68.221L287.687 184.934 373.157 385.957H508.086C512.91 385.957 517.382 383.545 520.021 379.517 522.65 375.478 523.071 370.415 521.114 366ZM419.692 213.697C417.155 215.723 413.355 216.075 410.977 213.879 404.184 207.622 388.46 189.303 383.465 189.303 376.172 189.303 371.962 200.499 364.464 200.499 359.754 200.499 349.468 184.73 349.468 184.73 346.999 182.124 342.972 181.771 340.07 183.899L327.293 193.274C324.688 195.186 321.115 195.129 318.578 193.092 316.041 191.067 315.199 187.597 316.496 184.627L357.319 91.83C358.662 88.769 361.222 85.743 364.464 85.743 367.696 85.743 370.267 88.769 371.598 91.83L421.751 205.221C423.06 208.179 422.195 211.661 419.692 213.697Z"/></svg>
